X:50
T: Corn Riggs
R: polka 32
M: 4/4
L: 1/8
Q:1/4=165
K:Gmaj
D2|G3 A B2AG| F2 G2 A2D2| G2 A2 BAGA| B2 e2 d2D2|
G3 A B2 AG| F2 G2 A2D2| E2F2 AGFE | D2G2 G2:|
A2|B2d2 B2d2 | edcB A2A2| B2d2 B3A| G2 e2 d4|
B2d2 B2d2 | edcB A2D2|  E2F2 AGFE | D2G2 G2:|

